X: 373
T: an Air Where in the double tongue is used.
%R:
Z: 2017 John Chambers <jc:trillian.mit.edu>
B: John Treat - "Gamut for the Fifes", 1779, p.37 #3
F: https://archive.org/details/GamutFortheFifes
M: 3/4
L: 1/16
K: D
% - - - - - - - - - - - - - - - - - - - - - - - - -
|:\
d'd'd'd' aaaa ffff | dddd A4 FFFF |\
D4 B4 A4 | {b2}Tg8 f4 |\
dAAA dAAA eAAA | fAAA dAAA fAAA |
g4 a4 g4 | {f2}Te12 ::\
eeee cccc AAAA | ffff d4 AAAA |\
g2a2 g4 f4 | {f2}Te8 b4 |\
bddd gddd bddd |
addd fddd addd |\
bddd gddd bddd | addd fddd addd |\
(3(b2g2e2) (3(a2f2d2) (3(g2e2c2) | d12 :|
% - - - - - - - - - - - - - - - - - - - - - - - - -
